web/packages/design/src/ResourceIcon/assets/datadog-dark.svg

<svg width="72" height="72" viewBox="0 0 72 72" fill="none" xmlns="http://www.w3.org/2000/svg">
<g clip-path="url(#clip0_17025_11967)">
<path d="M28.3145 18.9162C30.8032 17.2203 34.0093 17.8869 33.4729 18.398C32.4499 19.3725 33.8109 19.0844 33.9578 20.8827C34.0657 22.2072 33.6332 22.9365 33.261 23.3515C32.4841 23.4531 31.5397 23.6428 30.4025 24.0126C29.7295 24.2316 29.1446 24.4745 28.632 24.7189C28.4971 24.6308 28.3502 24.5229 28.1764 24.3729C26.421 22.8508 26.4798 20.1669 28.3145 18.9162ZM43.1801 29.4003C43.6316 29.0503 45.6839 28.3909 47.5837 28.1663C48.5813 28.0488 50.0034 27.9806 50.3065 28.1504C50.9089 28.4829 50.9089 29.5122 50.4962 30.4629C49.8954 31.8438 49.0463 33.3698 48.0845 33.4952C46.5155 33.7024 45.0323 32.8532 43.3388 31.5882C42.7341 31.1335 42.3627 30.032 43.1801 29.4003ZM46.0426 15.9529C48.359 17.0306 48.0559 19.0812 48.1202 20.2859C48.1376 20.6319 48.1321 20.8652 48.1027 21.0255C47.7821 20.8517 47.275 20.724 46.4711 20.7597C46.2362 20.7692 46.0076 20.797 45.7862 20.8319C44.9315 20.374 44.4205 19.478 43.953 18.5257C43.9102 18.4376 43.8768 18.3591 43.8451 18.2829C43.8316 18.248 43.8173 18.2107 43.8038 18.1789C43.7983 18.1615 43.7943 18.148 43.788 18.1321C43.5316 17.3187 43.7038 17.156 43.8118 16.9052C43.9237 16.6489 44.3419 16.4378 43.7237 16.2243C43.6705 16.2045 43.6046 16.1934 43.53 16.1791C43.9395 15.6712 45.1656 15.5482 46.0426 15.9529ZM33.4141 40.4709C30.9183 38.8686 28.336 36.5704 27.2067 35.2983C27.017 35.1554 27.048 34.5213 27.048 34.5213C28.0669 35.3133 32.2944 38.3337 36.7647 39.713C38.3416 40.2003 40.7612 40.3844 42.8603 39.1948C44.4641 38.2853 46.3949 36.7005 47.5472 35.0673L47.7583 35.4332C47.7504 35.676 47.2202 36.8593 46.9504 37.3346C47.4377 37.6148 47.8012 37.6909 48.3432 37.8393L52.0445 37.2624C53.373 35.1165 54.3253 31.6557 53.3103 28.3615C52.7309 26.4719 49.7105 22.7095 49.4939 22.5024C48.7352 21.7731 49.6209 18.9559 48.117 15.8823C46.5274 12.6309 42.3857 9.24071 40.5866 7.76543C41.1167 8.1527 44.3816 9.46927 45.9037 11.3064C46.0465 11.1168 46.1052 10.1303 46.2362 9.88035C44.9291 8.16857 44.8276 5.12277 44.8276 4.30855C44.8276 2.8158 44.0689 1.12387 44.0689 1.12387C44.0689 1.12387 45.3759 2.15871 45.714 3.94111C46.1132 6.05207 46.9639 7.71464 48.0892 9.12167C50.2192 11.7746 52.1429 13.1357 53.115 12.1556C54.2784 10.9779 51.935 5.71003 48.9415 2.76977C45.4474 -0.661711 44.5339 -0.219681 42.4841 0.512009C40.8485 1.0953 39.9644 5.73939 35.7013 5.64733C34.9791 5.56321 33.1189 5.51798 32.1992 5.52591C32.6785 4.85692 33.0896 4.34029 33.0896 4.34029C33.0896 4.34029 31.6595 4.91564 30.4406 5.64495L30.3469 5.50449C30.758 4.63789 31.2 4.09031 31.2 4.09031C31.2 4.09031 30.0573 4.77677 29.0145 5.59893C29.2041 4.56567 29.9223 3.91096 29.9223 3.91096C29.9223 3.91096 28.4788 4.17126 26.6401 6.19412C24.5505 6.7655 24.0482 7.14087 22.3832 7.87812C19.6755 7.28769 18.3986 6.33458 17.1813 4.57996C16.2543 3.23958 14.6045 3.03642 12.9189 3.72923C10.4611 4.74502 7.35263 6.13619 7.35263 6.13619C7.35263 6.13619 8.36605 6.09492 9.42232 6.14015C7.97639 6.68773 6.58761 7.44085 6.58761 7.44085C6.58761 7.44085 7.26454 7.41704 8.10019 7.43133C7.52325 7.91065 7.20423 8.13921 6.65427 8.50347C5.33215 9.46371 4.26001 10.5732 4.26001 10.5732C4.26001 10.5732 5.15756 10.1645 5.96385 9.9351C5.4004 11.2263 4.28302 12.177 4.48856 13.7578C4.68617 15.2014 6.45826 18.175 8.74538 20.0002C8.94299 20.1589 12.0674 23.05 14.4243 21.8628C16.7797 20.6771 17.709 19.6209 18.0963 18.0012C18.5518 16.141 18.2923 14.7339 17.3193 10.6962C16.9987 9.36372 16.1631 6.61948 15.7599 5.30688L15.8496 5.2426C16.6202 6.86867 18.5923 11.1549 19.3866 14.034C20.627 18.5233 20.2398 20.8009 19.6723 21.6358C17.9606 24.1539 13.5744 24.4864 11.5793 23.0913C11.2738 27.925 12.3538 30.0534 12.7197 31.1256C12.538 32.358 13.3363 34.6467 13.3363 34.6467C13.3363 34.6467 13.426 33.6063 13.7918 33.058C13.8894 34.2809 14.5061 35.7339 14.5061 35.7339C14.5061 35.7339 14.4688 34.8364 14.7489 34.0611C15.1441 34.7301 15.4338 34.8888 15.8075 35.3911C16.1813 36.6982 16.9305 37.6528 16.9305 37.6528C16.9305 37.6528 16.8091 36.9521 16.8757 36.2228C18.7049 37.9798 19.02 40.5439 19.2017 42.5144C19.7144 47.9314 10.6603 52.239 8.90569 55.6277C7.57563 57.6347 6.77887 60.8098 9.03108 62.6819C14.4751 67.203 12.384 68.4473 15.1092 70.4345C18.8478 73.1597 23.5252 71.9391 25.1172 69.7226C27.3337 66.634 26.7647 63.7207 25.9409 60.9955C25.2973 58.8647 23.5482 55.3245 21.3849 53.9548C19.174 52.5541 17.0241 52.2922 15.2028 52.4795L15.3711 52.2859C17.9907 51.7653 20.7294 52.051 22.711 53.3286C24.9608 54.7746 27.0186 57.2545 28.0947 61.0558C29.3153 60.882 29.4875 60.8035 30.6048 60.6448L28.0892 41.0621L33.4141 40.4709ZM34.868 65.0167L34.5783 62.301L40.2359 53.6715L46.6584 55.5475L52.181 46.3236L58.8011 50.6908L63.8309 40.1423L65.6188 59.3528L34.868 65.0167ZM65.6855 36.2085L45.4712 39.8725C44.9704 40.5177 43.7324 41.651 43.1372 41.9462C40.5842 43.2318 38.859 42.8596 37.3678 42.4723C36.4092 42.2295 35.8536 42.093 35.0577 41.7351L30.1239 42.412L33.1189 67.3998L67.7473 61.1574L65.6855 36.2085Z" fill="white"/>
</g>
<defs>
<clipPath id="clip0_17025_11967">
<rect width="72" height="72" fill="white"/>
</clipPath>
</defs>
</svg>

<svg xmlns="http://www.w3.org/2000/svg" width="72" height="72" fill="none" viewBox="0 0 72 72"><g clip-path="url(#a)"><path fill="#fff" d="M28.315 18.916c2.488-1.696 5.694-1.03 5.158-.518-1.023.974.338.686.485 2.485.108 1.324-.325 2.053-.697 2.469-.777.101-1.721.29-2.859.66a15 15 0 0 0-1.77.707 4 4 0 0 1-.456-.346c-1.755-1.522-1.696-4.206.139-5.457M43.18 29.4c.452-.35 2.504-1.01 4.404-1.234.997-.117 2.42-.185 2.722-.016.603.333.603 1.362.19 2.313-.6 1.38-1.45 2.907-2.412 3.032-1.569.207-3.052-.642-4.745-1.907-.605-.454-.976-1.556-.159-2.188m2.863-13.447c2.316 1.078 2.013 3.128 2.077 4.333.018.346.012.58-.017.74-.32-.174-.828-.302-1.632-.266-.235.01-.463.037-.685.072-.855-.458-1.366-1.354-1.833-2.306a4 4 0 0 1-.108-.243l-.041-.104-.016-.047c-.256-.813-.084-.976.024-1.227.112-.256.53-.467-.088-.68-.053-.02-.12-.032-.194-.046.41-.508 1.636-.63 2.513-.226M33.414 40.47c-2.496-1.602-5.078-3.9-6.207-5.173-.19-.143-.159-.777-.159-.777 1.019.792 5.246 3.813 9.717 5.192 1.577.487 3.996.671 6.095-.518 1.604-.91 3.535-2.495 4.687-4.128l.211.366c-.008.243-.538 1.426-.808 1.902.488.28.851.356 1.393.504l3.701-.577c1.329-2.145 2.281-5.606 1.266-8.9-.58-1.89-3.6-5.652-3.816-5.86-.759-.729.127-3.546-1.377-6.62-1.59-3.251-5.731-6.641-7.53-8.117.53.388 3.795 1.704 5.317 3.541.142-.19.201-1.176.332-1.426-1.307-1.711-1.408-4.757-1.408-5.571 0-1.493-.76-3.185-.76-3.185s1.308 1.035 1.646 2.817c.4 2.111 1.25 3.774 2.375 5.18 2.13 2.654 4.054 4.015 5.026 3.035 1.163-1.178-1.18-6.446-4.174-9.386C45.448-.662 44.534-.22 42.485.512c-1.636.583-2.52 5.227-6.783 5.135-.722-.084-2.582-.129-3.502-.121.48-.67.89-1.186.89-1.186s-1.43.576-2.648 1.305l-.094-.14c.411-.867.853-1.415.853-1.415s-1.143.687-2.185 1.509c.19-1.033.907-1.688.907-1.688s-1.443.26-3.282 2.283c-2.09.572-2.592.947-4.257 1.684-2.707-.59-3.984-1.543-5.202-3.298-.927-1.34-2.577-1.544-4.262-.85-2.458 1.015-5.566 2.406-5.566 2.406s1.013-.041 2.07.004c-1.447.548-2.835 1.3-2.835 1.3s.677-.023 1.512-.009c-.577.48-.896.708-1.446 1.072-1.322.96-2.394 2.07-2.394 2.07s.898-.409 1.704-.638c-.564 1.291-1.681 2.242-1.475 3.823.197 1.443 1.97 4.417 4.256 6.242.198.159 3.322 3.05 5.68 1.863 2.355-1.186 3.284-2.242 3.671-3.862.456-1.86.196-3.267-.777-7.305-.32-1.332-1.156-4.077-1.56-5.39l.09-.063c.771 1.626 2.743 5.912 3.538 8.791 1.24 4.49.853 6.767.285 7.602-1.711 2.518-6.098 2.85-8.093 1.455-.305 4.834.775 6.962 1.14 8.035-.181 1.232.617 3.52.617 3.52s.09-1.04.456-1.588c.097 1.223.714 2.676.714 2.676s-.037-.898.243-1.673c.395.67.685.828 1.058 1.33a7.3 7.3 0 0 0 1.123 2.262s-.12-.7-.054-1.43c1.829 1.757 2.144 4.32 2.326 6.291.512 5.417-8.542 9.725-10.296 13.114-1.33 2.007-2.127 5.182.125 7.054 5.444 4.521 3.353 5.765 6.078 7.752 3.739 2.726 8.416 1.505 10.008-.711 2.217-3.089 1.648-6.002.824-8.727-.644-2.131-2.393-5.672-4.556-7.041-2.211-1.4-4.36-1.663-6.182-1.475l.168-.194c2.62-.52 5.358-.235 7.34 1.043 2.25 1.446 4.308 3.925 5.384 7.727 1.22-.174 1.393-.252 2.51-.411L28.09 41.062zm1.454 24.546-.29-2.716 5.658-8.63 6.422 1.877 5.523-9.224 6.62 4.367 5.03-10.549 1.788 19.21zm30.818-28.808L45.47 39.872c-.5.646-1.739 1.779-2.334 2.074-2.553 1.286-4.278.914-5.77.526-.958-.242-1.513-.379-2.31-.737l-4.933.677L33.119 67.4l34.628-6.243z"/></g><defs><clipPath id="a"><path fill="#fff" d="M0 0h72v72H0z"/></clipPath></defs></svg>
